gtk-icons/Papirus-Dark-GTK/22x22/actions/kstars_satellites.svg

<?xml version="1.0" encoding="UTF-8" standalone="no"?>
<!-- Created with Inkscape (http://www.inkscape.org/) -->

<svg
   xmlns:dc="http://purl.org/dc/elements/1.1/"
   xmlns:cc="http://creativecommons.org/ns#"
   xmlns:rdf="http://www.w3.org/1999/02/22-rdf-syntax-ns#"
   xmlns:svg="http://www.w3.org/2000/svg"
   xmlns="http://www.w3.org/2000/svg"
   xmlns:sodipodi="http://sodipodi.sourceforge.net/DTD/sodipodi-0.dtd"
   xmlns:inkscape="http://www.inkscape.org/namespaces/inkscape"
   width="22"
   height="22"
   id="svg2"
   version="1.1"
   inkscape:version="0.91 r13725"
   viewBox="0 0 22 22"
   sodipodi:docname="kstars_satellites.svg">
  <defs
     id="defs4">
    <style
       type="text/css"
       id="current-color-scheme">
      .ColorScheme-Text {
        color:#4d4d4d;
      }
      .ColorScheme-Background {
        color:#eff0f1;
      }
      .ColorScheme-Highlight {
        color:#3daee9;
      }
      .ColorScheme-ViewText {
        color:#31363b;
      }
      .ColorScheme-ViewBackground {
        color:#fcfcfc;
      }
      .ColorScheme-ViewHover {
        color:#93cee9;
      }
      .ColorScheme-ViewFocus{
        color:#3daee9;
      }
      .ColorScheme-ButtonText {
        color:#31363b;
      }
      .ColorScheme-ButtonBackground {
        color:#eff0f1;
      }
      .ColorScheme-ButtonHover {
        color:#93cee9;
      }
      .ColorScheme-ButtonFocus{
        color:#3daee9;
      }
      </style>
  </defs>
  <sodipodi:namedview
     id="base"
     pagecolor="#ffffff"
     bordercolor="#666666"
     borderopacity="1.0"
     inkscape:pageopacity="0.0"
     inkscape:pageshadow="2"
     inkscape:zoom="21.67"
     inkscape:cx="3.9178083"
     inkscape:cy="11"
     inkscape:document-units="px"
     inkscape:current-layer="layer1"
     showgrid="false"
     inkscape:showpageshadow="false"
     units="px"
     inkscape:window-width="1600"
     inkscape:window-height="847"
     inkscape:window-x="0"
     inkscape:window-y="30"
     inkscape:window-maximized="1"
     inkscape:object-nodes="true"
     inkscape:snap-bbox="true"
     showguides="false">
    <inkscape:grid
       type="xygrid"
       id="grid4120" />
    <sodipodi:guide
       position="2,20.000017"
       orientation="18,0"
       id="guide4126" />
    <sodipodi:guide
       position="2,2.0000174"
       orientation="0,18"
       id="guide4128" />
    <sodipodi:guide
       position="20,2.0000174"
       orientation="-18,0"
       id="guide4130" />
    <sodipodi:guide
       position="20,20.000017"
       orientation="0,-18"
       id="guide4132" />
    <sodipodi:guide
       position="3,19.000017"
       orientation="16,0"
       id="guide4134" />
    <sodipodi:guide
       position="3,3.0000174"
       orientation="0,16"
       id="guide4136" />
    <sodipodi:guide
       position="19,3.0000174"
       orientation="-16,0"
       id="guide4138" />
    <sodipodi:guide
       position="19,19.000017"
       orientation="0,-16"
       id="guide4140" />
    <sodipodi:guide
       position="19,13.000017"
       orientation="-6,0"
       id="guide4199" />
    <sodipodi:guide
       position="19,19.000017"
       orientation="0,-6.0000172"
       id="guide4201" />
  </sodipodi:namedview>
  <metadata
     id="metadata7">
    <rdf:RDF>
      <cc:Work
         rdf:about="">
        <dc:format>image/svg+xml</dc:format>
        <dc:type
           rdf:resource="http://purl.org/dc/dcmitype/StillImage" />
        <dc:title></dc:title>
      </cc:Work>
    </rdf:RDF>
  </metadata>
  <g
     inkscape:label="Capa 1"
     inkscape:groupmode="layer"
     id="layer1"
     transform="translate(0,-1030.3622)">
    <path
       style="fill:#ffffff;fill-opacity:1;fill-rule:evenodd;stroke:none;stroke-width:1px;stroke-linecap:butt;stroke-linejoin:miter;stroke-opacity:1;opacity:0.72"
       d="M 14 3 L 8.7363281 10.177734 A 4.5 4.5 0 0 1 9.1855469 10.333984 C 8.6642326 10.122884 8.0970333 10 7.5 10 C 6.3069911 10 5.1632886 10.476112 4.3203125 11.320312 A 4.5 4.5 0 0 0 3.6933594 12.107422 L 5.7871094 14.201172 L 4.390625 16.105469 A 3.5 3.5 0 0 0 5.8964844 17.607422 L 7.7988281 16.212891 L 9.8945312 18.308594 A 4.5 4.5 0 0 0 10.679688 17.679688 C 11.523881 16.836687 11.998786 15.693 12 14.5 C 12.000001 13.9188 11.88031 13.367422 11.679688 12.857422 A 4.5 4.5 0 0 1 11.824219 13.261719 L 19 8 L 14 3 z M 5.9140625 3.0859375 L 3.0859375 5.9160156 L 6.7578125 9.5859375 L 9.5859375 6.7578125 L 5.9140625 3.0859375 z M 15.242188 12.414062 L 12.414062 15.244141 L 16.085938 18.916016 L 18.914062 16.085938 L 15.242188 12.414062 z M 3.7480469 16.980469 L 3 18 L 4 19 L 5.0195312 18.251953 A 4.5 4.5 0 0 1 3.7480469 16.980469 z "
       transform="translate(0,1030.3622)"
       id="path4173" />
  </g>
</svg>

<?xml version="1.0" encoding="UTF-8" standalone="no"?>
<!-- Created with Inkscape (http://www.inkscape.org/) -->
<svg id="svg2" xmlns:rdf="http://www.w3.org/1999/02/22-rdf-syntax-ns#" xmlns="http://www.w3.org/2000/svg" height="22" viewBox="0 0 22 22" width="22" version="1.1" xmlns:cc="http://creativecommons.org/ns#" xmlns:dc="http://purl.org/dc/elements/1.1/">
 <defs id="defs4">
  <style id="current-color-scheme" type="text/css">.ColorScheme-Text {
        color:#4d4d4d;
      }
      .ColorScheme-Background {
        color:#eff0f1;
      }
      .ColorScheme-Highlight {
        color:#3daee9;
      }
      .ColorScheme-ViewText {
        color:#31363b;
      }
      .ColorScheme-ViewBackground {
        color:#fcfcfc;
      }
      .ColorScheme-ViewHover {
        color:#93cee9;
      }
      .ColorScheme-ViewFocus{
        color:#3daee9;
      }
      .ColorScheme-ButtonText {
        color:#31363b;
      }
      .ColorScheme-ButtonBackground {
        color:#eff0f1;
      }
      .ColorScheme-ButtonHover {
        color:#93cee9;
      }
      .ColorScheme-ButtonFocus{
        color:#3daee9;
      }</style>
 </defs>
 <metadata id="metadata7">
  <rdf:RDF>
   <cc:Work rdf:about="">
    <dc:format>image/svg+xml</dc:format>
    <dc:type rdf:resource="http://purl.org/dc/dcmitype/StillImage"/>
    <dc:title/>
   </cc:Work>
  </rdf:RDF>
 </metadata>
 <g id="layer1" transform="translate(0 -1030.4)">
  <path id="path4173" opacity=".72" d="m14 3l-5.2637 7.178a4.5 4.5 0 0 1 0.4492 0.156c-0.5213-0.211-1.0885-0.334-1.6855-0.334-1.193 0-2.3367 0.476-3.1797 1.32a4.5 4.5 0 0 0 -0.6269 0.787l2.0937 2.094-1.3965 1.904a3.5 3.5 0 0 0 1.5059 1.502l1.9023-1.394 2.0957 2.096a4.5 4.5 0 0 0 0.7855 -0.629c0.844-0.843 1.319-1.987 1.32-3.18 0-0.581-0.12-1.133-0.32-1.643a4.5 4.5 0 0 1 0.144 0.405l7.176-5.262-5-5zm-8.0859 0.0859l-2.8282 2.8301 3.6719 3.6699 2.8281-2.8281-3.6718-3.6719zm9.3279 9.3281l-2.828 2.83 3.672 3.672 2.828-2.83-3.672-3.672zm-11.494 4.566l-0.748 1.02 1 1 1.0195-0.748a4.5 4.5 0 0 1 -1.2715 -1.272z" fill-rule="evenodd" transform="translate(0 1030.4)" fill="#fff"/>
 </g>
</svg>
